!!!COM: Haydn, Franz Joseph
!!!OTL: String Quartet in E-flat Major
!!!OPS: Opus 17
!!!ONM: No. 3
!!!OMD: Menuetto: Allegretto
!!!OMV: 2
!!!SCT: H III:27
!!!SCA: Thematisch-bibliographisches Werkevererzeichnis (A. van Hoboken)
!!!YOR: Trautwein Edition
!!!ENC: Frances Bennion
!!!CDT: 1732/3/31/-1809/5/31/
!!!CNT: Oesterreich
!!!YEC: Copyright (c) 1994, 2000 Center for Computer Assisted Research in the Humanities
!!!YEM: Rights to all derivative editions reserved.
!!!YEM: Refer to licensing agreement for further details.
!!!YEN: United States of America
**kern	**kern	**kern	**kern
*k[b-e-a-]	*k[b-e-a-]	*k[b-e-a-]	*k[b-e-a-]
*E-:	*E-:	*E-:	*E-:
*clefF4	*clefC3	*clefG	*clefG
*M3/4	*M3/4	*M3/4	*M3/4
2r	2r	2r	2r
4r	4r	4r	4ee-
=1	=1	=1	=1
2r	2r	2r	8ee-
.	.	.	8dd
.	.	.	8cc
.	.	.	8b-
4d	4f	4a-	4b-
=2	=2	=2	=2
2d	2f	2a-	2b-
4r	4r	4r	4a-
=3	=3	=3	=3
2r	2r	2r	8a-
.	.	.	8g
.	.	.	8f
.	.	.	8e-
4A	4c	4e-	4f
=4	=4	=4	=4
2A	2c	2e-	2f
4D	4B-	4f	4a-
=5	=5	=5	=5
2E-	2B-	2e-	8a-
.	.	.	8g
.	.	.	8f
.	.	.	8e-
4EE-	4B-	4G	4e- 4G
=6	=6	=6	=6
2EE-	2B-	2G	2e- 2G
4r	4r	4r	4a-
=7	=7	=7	=7
2r	2r	2r	8a-
.	.	.	8g
.	.	.	8f
.	.	.	8e-
4e-	4e-	4g	4cc
=8	=8	=8	=8
2e-	2e-	2g	4cc
.	.	.	8gg
.	.	.	8ee-
4f	8f	4a-	8dd
.	8d	.	8b
=9	=9	=9	=9
2e-	2e-	2g	4cc
.	.	.	8gg
.	.	.	8ee-
4f	8f	4a-	8dd
.	8d	.	8b
=10	=10	=10	=10
2e-	[2.e-	[2.g	4cc
.	.	.	4cc
4d	.	.	4dd
=11	=11	=11	=11
4c	2.e-]	2g]	[2.ee-
4c-	.	.	.
4B-	.	4g-	.
=12	=12	=12	=12
2.A	4c	[2.f	4ee-]
.	4d	.	4dd
.	4e-	.	4cc
=13	=13	=13	=13
4B-	4d	4f]	4b-
4r	4r	4r	8ff
.	.	.	8dd
4F	8A	4e-	8cc
.	8c	.	8a
=14	=14	=14	=14
4BB-	4B-	4d	4b-
4r	4r	4r	8ff
.	.	.	8dd
4F	8A	4e-	8cc
.	8c	.	8a
=15	=15	=15	=15
4BB-	4B-	4d	4b-
4BB-	4F	4d	4B-
4BB-	4F	4d	4B-
=16	=16	=16	=16
2BB-	2F	2d	2B-
4r	4r	4r	4bb-
=17	=17	=17	=17
2.r	2.r	2r	8bb-
.	.	.	8aa-
.	.	.	8gg
.	.	.	8ff
.	.	4ee-	4ff
=18	=18	=18	=18
2.r	2r	8ee-	2ff
.	.	8dd	.
.	.	8cc	.
.	.	8b-	.
.	4dd	4b-	4aa-
=19	=19	=19	=19
2r	4ee-	4cc	8aa-
.	.	.	8gg
.	4r	4r	8ff
.	.	.	8ee-
4c	4ee-	4e-	4ee-
=20	=20	=20	=20
8c	8ee-	2e-	2ee-
8B-	8dd-	.	.
8A-	8cc	.	.
8G	8b-	.	.
4G	4b-	4e-	4dd-
=21	=21	=21	=21
2A-	2.a-	2e-	8dd-
.	.	.	8cc
.	.	.	8b-
.	.	.	8a-
4F	.	4d	4cc
=22	=22	=22	=22
2G	2.g	2d	8cc
.	.	.	8b-
.	.	.	8a-
.	.	.	8g
4E	.	4c	4b-
=23	=23	=23	=23
2F	4f	4c	8b-
.	.	.	8a-
.	4F	4A-	8g
.	.	.	8f
4G	4G	4B-	4f
=24	=24	=24	=24
2A-	2A-	2c	4f
.	.	.	8cc
.	.	.	8a-
4B-	8B-	4d-	8g
.	8G	.	8e
=25	=25	=25	=25
2A-	2A-	2c	4f
.	.	.	8cc
.	.	.	8a-
4B-	8B-	4d-	8g
.	8G	.	8e
=26	=26	=26	=26
2A-	[2.A-	[2.c	4f
.	.	.	4f
4G	.	.	4g
=27	=27	=27	=27
4F	2.A-]	2c]	[2.a-
4F-	.	.	.
4E-	.	4c-	.
=28	=28	=28	=28
2.D	4F	[2.B-	4a-]
.	4G	.	4g
.	4A-	.	4f
=29	=29	=29	=29
4E-	4G	4B-]	4e-
4r	4r	4r	8b-
.	.	.	8g
4B-	8D	4A-	8f
.	8F	.	8d
=30	=30	=30	=30
4E-	4E-	4G	4e-
4r	4r	4r	8b-
.	.	.	8g
4BB-	8D	4A-	8f
.	8F	.	8d
=31	=31	=31	=31
4EE-	4E-	4G	4e-
4EE-	4E- 4B-	4G	4e-
4EE-	4E- 4B-	4G	4e-
=32	=32	=32	=32
2EE-	2B- 2E-	2G	2e-
4r	4r	4r	4eee-
=33	=33	=33	=33
2r	2r	2r	8eee-
.	.	.	8ddd
.	.	.	8ccc
.	.	.	8bb-
4d	4f	4aa-	4bb-
=34	=34	=34	=34
2d	2f	2aa-	2bb-
4r	4r	4r	4aaa-
=35	=35	=35	=35
2r	2r	2r	8aaa-
.	.	.	8ggg
.	.	.	8fff
.	.	.	8eee-
4e-	4b-	4gg	4eee-
=36	=36	=36	=36
4e-	4b-	4gg	4eee-
2r	2r	2r	4r
.	.	.	8g
.	.	.	8b-
=37	=37	=37	=37
2r	2r	2r	8cc
.	.	.	8b-
.	.	.	8a-
.	.	.	8b-
4F	[4B-	4ff	8f
.	.	.	8b-
=38	=38	=38	=38
4G	2.B-_	4gg	8g
.	.	.	8b-
4E-	.	4ee-	8e-
.	.	.	8b-
4D	.	4dd	8d
.	.	.	8b-
=39	=39	=39	=39
2BB-	2.B-_	2b-	8B-
.	.	.	8b-
.	.	.	8d
.	.	.	8b-
4F	.	4ff	8f
.	.	.	8b-
=40	=40	=40	=40
4G	2.B-_	4gg	8g
.	.	.	8b-
4E-	.	4ee-	8e-
.	.	.	8b-
4D	.	4dd	8d
.	.	.	8b-
=41	=41	=41	=41
2BB-	2.B-_	2b-	8B-
.	.	.	8b-
.	.	.	8d
.	.	.	8b-
4D	.	4ff	8f
.	.	.	8b-
=42	=42	=42	=42
4E-	2.B-_	4gg	8g
.	.	.	8b-
4G	.	4ee-	8e-
.	.	.	8b-
4E-	.	4gg	8g
.	.	.	8b-
=43	=43	=43	=43
4F	2.B-]	4aa-	8a-
.	.	.	8b-
4D	.	4ff	8f
.	.	.	8b-
4C	.	4ee-	8e-
.	.	.	8b-
=44	=44	=44	=44
2BB-	4B-	4dd	8d
.	.	.	8aa-
.	4d	4ff	8ff
.	.	.	8dd
4D	4f	4a-	8b-
.	.	.	8a-
=45	=45	=45	=45
4E-	4e-	4g	8g
.	.	.	8b-
4G	4G	4e-	8e-
.	.	.	8g
4B-	4F	4d	8B-
.	.	.	8A-
=46	=46	=46	=46
4E-	4G	4e-	4G
4EE-	2r	2r	4r
4r	.	.	8g
.	.	.	8b-
=47	=47	=47	=47
2r	2r	2r	8cc
.	.	.	8b-
.	.	.	8a-
.	.	.	8b-
4G	4e-	4dd-	8g
.	.	.	8dd-
=48	=48	=48	=48
4A-	[2.e-	4cc	8cc
.	.	.	8ee-
4c	.	4ee-	8a-
.	.	.	8ee-
4A-	.	4cc	8cc
.	.	.	8ee-
=49	=49	=49	=49
4G	2.e-]	4b-	8b-
.	.	.	8ee-
4E-	.	4ee-	8g
.	.	.	8ee-
4G	.	4b-	8b-
.	.	.	8ee-
=50	=50	=50	=50
4F	4c	4a-	8a-
.	.	.	8cc
4D	4d	4f	8f
.	.	.	8a-
4E-	4e-	4g	8g
.	.	.	8e-
=51	=51	=51	=51
4BB-	4d	4f	8d
.	.	.	8f
4BB-	4f	4a-	8B-
.	.	.	8a-
4BB-	4e-	4g	8g
.	.	.	8e-
=52	=52	=52	=52
4BB-	4d	4f	8d
.	.	.	8f
4BB-	4f	4a-	8B-
.	.	.	8a-
4BB-	4e-	4g	8g
.	.	.	8e-
=53	=53	=53	=53
4BB-	4d	4f	8d
.	.	.	8f
4BB-	4e-	4g	8g
.	.	.	8e-
4BB-	4c	4a	8a
.	.	.	8e-
=54	=54	=54	=54
4BB-	4B-	4b-	8d
.	.	.	8f
2r	2r	2r	8a
.	.	.	8b-
.	.	.	8g
.	.	.	8b-
=55	=55	=55	=55
2r	2r	2r	8cc
.	.	.	8b-
.	.	.	8a-
.	.	.	8b-
4F	[4B-	4ff	8f
.	.	.	8b-
=56	=56	=56	=56
4G	2.B-_	4gg	8g
.	.	.	8b-
4E-	.	4ee-	8e-
.	.	.	8b-
4D	.	4dd	8d
.	.	.	8b-
=57	=57	=57	=57
2BB-	2.B-_	2b-	8B-
.	.	.	8b-
.	.	.	8d
.	.	.	8b-
4F	.	4ff	8f
.	.	.	8b-
=58	=58	=58	=58
4G	2.B-_	4gg	8g
.	.	.	8b-
4E-	.	4ee-	8e-
.	.	.	8b-
4D	.	4dd	8d
.	.	.	8b-
=59	=59	=59	=59
2BB-	2.B-_	2b-	8B-
.	.	.	8b-
.	.	.	8d
.	.	.	8b-
4D	.	4ff	8f
.	.	.	8b-
=60	=60	=60	=60
4E-	2.B-_	4gg	8g
.	.	.	8b-
4G	.	4ee-	8e-
.	.	.	8b-
4E-	.	4gg	8g
.	.	.	8b-
=61	=61	=61	=61
4F	2.B-]	4aa-	8a-
.	.	.	8b-
4D	.	4ff	8f
.	.	.	8b-
4C	.	4ee-	8e-
.	.	.	8b-
=62	=62	=62	=62
2BB-	4B-	4dd	8d
.	.	.	8aa-
.	4d	4ff	8ff
.	.	.	8dd
4D	4f	4a-	8b-
.	.	.	8a-
=63	=63	=63	=63
4E-	4e-	4g	8g
.	.	.	8b-
4G	4G	4e-	8e-
.	.	.	8g
4B-	4F	4d	8B-
.	.	.	8A-
=64	=64	=64	=64
4E-	4G	4e-	4G
4EE-	2r	2r	2r
4r	.	.	.
==	==	==	==
*-	*-	*-	*-
!!!RWG1: This file contains only pitch and duration data.
!!!RWG2: Transposing instruments are not transposed.
!!!RWG3: Spines may have incompatible meters.
!!!RWG4: Durations of rests and tied notes may be interpreted.
!!!RWG: Key is interpreted using the Humdrum key tool.
!!!GTL: 6 Divertimentos
!!!AFT: stage1
!!!END: 1997/04/15
!!!KEY: 2410060135
!!!EMD: Converted from MuseData to Humdrum Dec 16, 2000, by Andreas Kornstaedt using muse2kern.
!!!EMD: Manual editing by Craig Sapp, Nov 2001
